source/img/sprite/call.svg

<svg width="" height="" viewBox="0 0 21 20" fill="none" xmlns="http://www.w3.org/2000/svg">
<path d="M16.3147 12.3893C15.9047 11.9629 15.4101 11.735 14.8859 11.735C14.366 11.735 13.8672 11.9587 13.4402 12.3851L12.1044 13.7147C11.9945 13.6556 11.8846 13.6007 11.7789 13.5459C11.6267 13.4699 11.483 13.3981 11.3604 13.3222C10.1091 12.5286 8.97196 11.4944 7.88132 10.1563C7.35291 9.48936 6.99782 8.92795 6.73995 8.35809C7.08659 8.04151 7.40786 7.71226 7.72068 7.39567C7.83905 7.27748 7.95741 7.15507 8.07578 7.03688C8.9635 6.15044 8.9635 5.00229 8.07578 4.11585L6.92173 2.96348C6.79068 2.83262 6.65541 2.69755 6.52859 2.56247C6.27495 2.30076 6.00863 2.03061 5.73386 1.77734C5.32381 1.37211 4.83345 1.15683 4.31772 1.15683C3.80199 1.15683 3.30317 1.37211 2.88045 1.77734C2.87622 1.78156 2.87622 1.78156 2.87199 1.78578L1.43471 3.23363C0.893623 3.77394 0.585031 4.43243 0.517395 5.19646C0.41594 6.42903 0.779486 7.57718 1.05849 8.32854C1.74331 10.1732 2.76631 11.8827 4.29236 13.7147C6.14391 15.9224 8.37168 17.6657 10.9165 18.8941C11.8888 19.3542 13.1866 19.8987 14.6365 19.9916C14.7253 19.9958 14.8183 20 14.9028 20C15.8793 20 16.6994 19.6496 17.342 18.9532C17.3462 18.9447 17.3547 18.9405 17.3589 18.932C17.5787 18.6661 17.8323 18.4255 18.0987 18.168C18.2804 17.995 18.4664 17.8134 18.6482 17.6235C19.0667 17.1887 19.2865 16.6822 19.2865 16.163C19.2865 15.6396 19.0625 15.1372 18.6355 14.7151L16.3147 12.3893ZM17.8281 16.8341C17.8239 16.8341 17.8239 16.8384 17.8281 16.8341C17.6633 17.0114 17.4942 17.1718 17.3124 17.3491C17.0376 17.6108 16.7586 17.8852 16.4965 18.1933C16.0696 18.6492 15.5665 18.8645 14.9071 18.8645C14.8437 18.8645 14.776 18.8645 14.7126 18.8603C13.4571 18.7801 12.2904 18.2904 11.4153 17.8725C9.02269 16.7159 6.92173 15.0739 5.17586 12.9929C3.73436 11.258 2.77054 9.65398 2.13222 7.93176C1.73908 6.88069 1.59535 6.06179 1.65876 5.28932C1.70103 4.79545 1.89126 4.386 2.24213 4.03565L3.68363 2.59624C3.89077 2.40207 4.11058 2.29654 4.32618 2.29654C4.59249 2.29654 4.80809 2.45694 4.94336 2.59202C4.94759 2.59624 4.95181 2.60046 4.95604 2.60468C5.2139 2.84529 5.45909 3.09433 5.71695 3.36026C5.848 3.49534 5.98327 3.63042 6.11854 3.76971L7.27259 4.92209C7.72068 5.36953 7.72068 5.7832 7.27259 6.23064C7.15 6.35305 7.03164 6.47546 6.90905 6.59366C6.55395 6.95667 6.21577 7.29437 5.848 7.62361C5.83954 7.63206 5.83109 7.63628 5.82686 7.64472C5.46332 8.00774 5.53095 8.36231 5.60704 8.60292C5.61127 8.61558 5.6155 8.62824 5.61972 8.64091C5.91986 9.36694 6.34259 10.0508 6.98514 10.8654L6.98936 10.8697C8.15609 12.3049 9.38623 13.4235 10.7432 14.2803C10.9165 14.3901 11.0941 14.4787 11.2631 14.5632C11.4153 14.6391 11.5591 14.7109 11.6816 14.7869C11.6986 14.7953 11.7155 14.808 11.7324 14.8164C11.8761 14.8882 12.0114 14.922 12.1509 14.922C12.5017 14.922 12.7216 14.7025 12.7934 14.6307L14.2392 13.1871C14.3829 13.0436 14.6112 12.8705 14.8775 12.8705C15.1396 12.8705 15.3552 13.0351 15.4862 13.1786C15.4904 13.1829 15.4904 13.1829 15.4947 13.1871L17.8239 15.5129C18.2593 15.9435 18.2593 16.3867 17.8281 16.8341Z" fill="#00B2FF"/>
<path d="M11.3095 4.75747C12.4171 4.9432 13.4232 5.46662 14.2264 6.26863C15.0295 7.07065 15.5495 8.07528 15.7397 9.18122C15.7862 9.45981 16.0272 9.65399 16.3019 9.65399C16.3358 9.65399 16.3654 9.64977 16.3992 9.64554C16.712 9.59489 16.9191 9.29941 16.8684 8.98705C16.6401 7.64895 16.006 6.42904 15.038 5.4624C14.0699 4.49576 12.8483 3.86258 11.5082 3.63464C11.1954 3.58399 10.9037 3.79083 10.8488 4.09897C10.7938 4.40711 10.9967 4.70681 11.3095 4.75747Z" fill="#00B2FF"/>
<path d="M20.4913 8.82242C20.1151 6.61899 19.0752 4.61395 17.4773 3.01836C15.8794 1.42277 13.8714 0.384369 11.6648 0.00868773C11.3562 -0.0461871 11.0645 0.16487 11.0095 0.473013C10.9588 0.785377 11.1659 1.07664 11.4788 1.13151C13.4487 1.46498 15.2453 2.39785 16.6741 3.82038C18.1029 5.24712 19.0329 7.0411 19.3669 9.00815C19.4134 9.28675 19.6543 9.48092 19.9291 9.48092C19.9629 9.48092 19.9925 9.4767 20.0263 9.47248C20.3349 9.42605 20.5463 9.13057 20.4913 8.82242Z" fill="#00B2FF"/>
</svg>

<svg xmlns="http://www.w3.org/2000/svg" fill="none" viewBox="0 0 21 20"><path fill="#00B2FF" d="M16.31 12.39c-.4-.43-.9-.66-1.42-.66-.52 0-1.02.23-1.45.66L12.1 13.7l-.32-.16a5.4 5.4 0 0 1-.42-.23 14.51 14.51 0 0 1-3.48-3.16 8.55 8.55 0 0 1-1.14-1.8c.35-.32.67-.65.98-.96l.36-.36c.88-.89.88-2.04 0-2.92L6.92 2.96l-.4-.4c-.25-.26-.51-.53-.79-.78a2 2 0 0 0-1.41-.62c-.52 0-1.02.21-1.44.62L1.42 3.24C.9 3.77.6 4.43.52 5.2c-.1 1.23.26 2.38.54 3.13.68 1.84 1.7 3.55 3.23 5.38a19.89 19.89 0 0 0 6.63 5.18A10.33 10.33 0 0 0 14.9 20c.98 0 1.8-.35 2.44-1.05l.02-.02c.22-.26.47-.5.74-.76l.55-.55c.42-.43.64-.94.64-1.46s-.23-1.02-.65-1.44l-2.33-2.33Zm1.52 4.44-.52.52c-.27.26-.55.54-.81.84-.43.46-.93.67-1.6.67h-.19a9.18 9.18 0 0 1-3.3-.99c-2.39-1.15-4.49-2.8-6.23-4.88a17.13 17.13 0 0 1-3.05-5.06 6.02 6.02 0 0 1-.47-2.64c.04-.5.23-.9.58-1.25L3.68 2.6c.21-.2.43-.3.65-.3a.9.9 0 0 1 .61.3h.02l.76.76.4.41 1.15 1.15c.45.45.45.86 0 1.31l-.36.36c-.36.37-.7.7-1.06 1.03l-.02.02c-.37.37-.3.72-.22.96l.01.04c.3.73.72 1.41 1.37 2.23a15.5 15.5 0 0 0 3.75 3.41c.18.11.35.2.52.28.16.08.3.15.42.23.02 0 .04.02.05.03.15.07.28.1.42.1a.9.9 0 0 0 .64-.29l1.45-1.44c.14-.15.37-.32.64-.32.26 0 .48.17.6.3l.01.02 2.33 2.32c.44.43.44.88 0 1.32ZM11.3 4.76a5.38 5.38 0 0 1 4.43 4.42c.06.28.3.47.57.47h.1a.57.57 0 0 0 .47-.66 6.5 6.5 0 0 0-5.36-5.36.57.57 0 0 0-.66.47c-.06.3.15.6.46.66Z"/><path fill="#00B2FF" d="M20.5 8.82a10.7 10.7 0 0 0-3.02-5.8c-1.6-1.6-3.6-2.64-5.82-3.01a.57.57 0 1 0-.18 1.12 9.6 9.6 0 0 1 7.89 7.88c.04.28.28.47.56.47h.1c.3-.05.52-.35.46-.66Z"/></svg>
